public/images/icon-mail.svg

<svg preserveAspectRatio="none" width="100%" height="100%" overflow="visible" style="display: block;" viewBox="0 0 16.6667 13.3333" fill="none" xmlns="http://www.w3.org/2000/svg">
<g id="Container">
<path id="Icon" d="M1.66667 13.3333C1.20833 13.3333 0.815972 13.1701 0.489583 12.8438C0.163194 12.5174 0 12.125 0 11.6667V1.66667C0 1.20833 0.163194 0.815972 0.489583 0.489583C0.815972 0.163194 1.20833 0 1.66667 0H15C15.4583 0 15.8507 0.163194 16.1771 0.489583C16.5035 0.815972 16.6667 1.20833 16.6667 1.66667V11.6667C16.6667 12.125 16.5035 12.5174 16.1771 12.8438C15.8507 13.1701 15.4583 13.3333 15 13.3333H1.66667V13.3333M8.33333 7.5L1.66667 3.33333V11.6667V11.6667V11.6667H15V11.6667V11.6667V3.33333L8.33333 7.5V7.5M8.33333 5.83333L15 1.66667H1.66667L8.33333 5.83333V5.83333M1.66667 3.33333V1.66667V1.66667V3.33333V11.6667V11.6667V11.6667V11.6667V11.6667V11.6667V3.33333V3.33333" fill="var(--fill-0, #C26B38)"/>
</g>
</svg>

<svg xmlns="http://www.w3.org/2000/svg" fill="none" viewBox="0 0 17 14">
  <path fill="currentColor"
    d="M1.667 13.333q-.688 0-1.177-.49A1.6 1.6 0 0 1 0 11.668v-10Q0 .979.49.49.979 0 1.667 0H15q.687 0 1.177.49.49.489.49 1.177v10q0 .687-.49 1.177t-1.177.49zM8.333 7.5 1.667 3.333v8.334H15V3.333zm0-1.667L15 1.667H1.667zm-6.666-2.5V1.667zv8.334z" />
</svg>
